components/2.0/icon/icons/icon-briefcase-22px.svg

<svg width="22" height="22" xmlns="http://www.w3.org/2000/svg"><g fill="#3D4752" fill-rule="evenodd"><path d="M19 6h-4V2H7v4H3C2 6 1 7 1 8v2h20V8c0-1-1-2-2-2zM9 4h4v2H9V4zM13 13H9v-2H1v8h20v-8h-8v2z"/></g></svg>

<?xml version="1.0" encoding="UTF-8" standalone="no"?>
<svg width="22px" height="22px" viewBox="0 0 22 22" version="1.1" xmlns="http://www.w3.org/2000/svg" xmlns:xlink="http://www.w3.org/1999/xlink" xmlns:sketch="http://www.bohemiancoding.com/sketch/ns">
    <!-- Generator: Sketch 3.4.4 (17249) - http://www.bohemiancoding.com/sketch -->
    <title>icon-briefcase-22px</title>
    <desc>Created with Sketch.</desc>
    <defs></defs>
    <g id="22px" stroke="none" stroke-width="1" fill="none" fill-rule="evenodd" sketch:type="MSPage">
        <g id="icon-briefcase-22px" sketch:type="MSArtboardGroup" fill="#3D4752">
            <path d="M19,6 L15,6 L15,2 L7,2 L7,6 L3,6 C1.9,6 1,6.9 1,8 L1,10 L21,10 L21,8 C21,6.9 20.1,6 19,6 L19,6 Z M9,4 L13,4 L13,6 L9,6 L9,4 L9,4 Z" id="Shape" sketch:type="MSShapeGroup"></path>
            <path d="M13,13 L9,13 L9,11 L1,11 L1,19 L21,19 L21,11 L13,11 L13,13 Z" id="Shape" sketch:type="MSShapeGroup"></path>
        </g>
    </g>
</svg>
